X: 4265
T: Bob McQuillan's
R: reel
M: 4/4
K: Gmajor
|:dc|B2Bc dcBA|GABG D2 Bd|cBcd edcB|AGFE D2dc|
B2Bc dcBA|GABG DB,G,B,|CDEC B,DGB|cAFA G2:|
|:Bc|d2 Bd g3f|eccB cBAB|c2Ac a3g|fdd^c d=cBc|
d2 Bd gagf|ecc2 efge|dBGB cAFG|AGGF G2:|

